X: 41118
T: Trip To Sligo, The
R: jig
M: 6/8
K: Eminor
|:E2e BGE|D2d AFD|E2e BGE|GFE e2f|
gfe dcB|ABG FED|EFG ABc|BGF E3:|
|:eBe gfe|dAd fed|eBe gfe|f/g/af g2e|
f/g/af gfe|dcB AFD|EFG ABc|BGF E3:|

